X:1
T:Somebody’s Here with an Aching Heart
T:Somebody’s Here with an Aching Heart
T:Robert Harkness
T:John Stuart Holden, 1910
T:Public Domain Courtesy of the Cyber Hymnal™
T:Public Domain Courtesy of the Cyber Hymnal™
C:Robert Harkness
Z:Public Domain
Z:Courtesy of the Cyber Hymnal™
%%score ( 1 2 ) ( 3 4 ) ( 5 6 )
L:1/8
M:6/4
K:G
V:1 treble 
V:2 treble 
V:3 treble 
V:4 treble 
V:5 bass 
V:6 bass 
V:1
"^Solo" D3 E G2 B3 ^A B2 | d4 e2 B4 B2 | E3 F G2 A4 D2 | B6- B4 z2 | D3 E G2 B3 ^A B2 | %5
w: 1.~Some- bo- dy’s here with an|ach- ing heart, No|rest and no peace with-|in; *|Some- bo- dy’s here, and the|
w: 2.~Some- bo- dy’s here with a|bur- dened soul, A|heart that’s in- clined to|pray; *|Seek- ing for cleans- ing, for|
w: 3.~Some- bo- dy’s here whom the|Lord doth seek, That|some- bo- dy may be|you; *|Come as you are, and make|
w: 4.~Some- bo- dy’s wait- ing to|hear the news, The|glo- ri- ous Gos- pel|sound; *|Je- sus has died to save|
 d4 e2 B4 B2 | (E2 F2) G2 A4 D2 | G6- G4 z2 x2 ||"^Refrain - Unison" D2 G2 B2 d4 B2 | e12 | %10
w: tear- drops start, As|God * con- victs of|sin. *|||
w: peace and power, To|you~doth * the Spir- it|say: *|Je- sus will give you|rest,|
w: no de- lay, And|prove~ev- * ery pro- mise|true. *|||
w: all from sin; Go|tell * it all a-|round! *|||
 d2 B2 G2 c4 B2 | A12 x8 |"^Full" D2 [DG]2 [Gc]2 [GB]6 | [DG]2 [GB]2 [Ge]2 [Gd]4 [GB]2 | %14
w: ||||
w: Je- sus will give you|rest;|Turn from your sin,|call now on Him, For|
w: ||||
w: ||||
 [GB]2 [GA]2 [EG]2 [GB]4 [DA]2 | [DG]12 |] %16
w: ||
w: Je- sus will give you|rest.|
w: ||
w: ||
V:2
 x12 | x12 | x12 | x12 | x12 | x12 | x12 | x14 || x12 | x12 | x12 | x20 | D2 x10 | x12 | x12 | %15
 x12 |] %16
V:3
 [DGB]6 [DGB]6 | [GBd]4 [GBe]2 [DGB]4 z2 | [^CGA]6 [=CFA]6 | ([B,Dd]4 [CEd]2 [CEd]6) | %4
 [DGB]6 [DGB]6 | [GBd]4 [GBe]2 [DGB]4 z2 | [^CGA]6 [=CFA]6 | B6- (C2 [B,B]4) z2 || %8
 [Dd]2 [Gg]2 [Bb]2 [cd']4 [Bb]2 | [ee']12 | [dd']2 [Bb]2 [Gg]2 [cb]4 [Bb]2 | a12 ([A^cg]2 [Adf]6) | %12
 x12 | x12 | x12 | x12 |] %16
V:4
 x12 | x12 | x12 | x12 | x12 | x12 | x12 | B,4 x10 || x12 | x12 | x12 | [Adf]4 x16 | x12 | x12 | %14
 x12 | x12 |] %16
V:5
 D,3 E, G,2 B,3 ^A, B,2 | D4 E2 B,4 B,2 | [A,,E,]3 F, G,2 D,4 F,2 | ([G,,D,]4 [G,,E,]2 [G,,D,]6) | %4
 D,3 E, G,2 B,3 ^A, B,2 | C4 D2 B,4 B,2 | ([A,,E,]2 F,2) G,2 D,4 D,2 | (D,4 E,2 [G,,D,]4) z2 x2 || %8
 [G,,G,]4 [D,G,B,]2 [G,B,D]4 [D,G,B,]2 | ([E,,E,]4 [E,G,B,]2 [G,B,E]4 [E,G,B,]2) | %10
 [G,,G,]4 [D,G,B,]2 [G,CE]4 [G,B,D]2 | ([D,D]4 [E,E]2 [D,D]6) x8 | [G,B,]2 [G,B,]2 [G,E]2 [G,D]6 | %13
 [G,B,]2 [G,D]2 [G,C]2 [G,B,]4 [G,D]2 | [E,^C]2 [E,C]2 [A,C]2 [D,D]4 [D,=C]2 | [G,B,]12 |] %16
V:6
 x12 | x12 | x12 | x12 | x12 | x12 | x12 | G,,6- x8 || x12 | x12 | x12 | x20 | x12 | x12 | x12 | %15
 x12 |] %16

